icons/src/svg/edit.svg

<svg width="32" height="32" viewBox="0 0 32 32" fill="none" xmlns="http://www.w3.org/2000/svg">
<path fill-rule="evenodd" clip-rule="evenodd" d="M20.3476 4.57993C21.1287 3.79888 22.395 3.79888 23.176 4.57993L27.4185 8.82239C28.1995 9.60344 28.1995 10.8698 27.4185 11.6508L13.6724 25.3969C13.4263 25.643 13.1202 25.8207 12.7844 25.9122L5.26309 27.9631C4.91689 28.0575 4.54665 27.9592 4.29291 27.7054C4.03917 27.4517 3.94084 27.0814 4.03525 26.7352L6.0862 19.2141C6.17778 18.8782 6.35541 18.5721 6.60154 18.326L20.3476 4.57993ZM26.0043 10.2366L21.7618 5.99414L19.6405 8.11543L23.883 12.3579L26.0043 10.2366ZM22.4688 13.7721L18.2263 9.52965L8.01575 19.7402L6.42515 25.5732L12.2582 23.9827L22.4688 13.7721Z" fill="#0D0F13"/>
</svg>

<svg fill="none" xmlns="http://www.w3.org/2000/svg" viewBox="0 0 32 32">
  <path fill-rule="evenodd" clip-rule="evenodd" d="M20.348 4.58a2 2 0 0 1 2.828 0l4.242 4.243a2 2 0 0 1 0 2.829L13.672 25.398a2 2 0 0 1-.888.515l-7.521 2.05a1 1 0 0 1-1.228-1.227l2.051-7.521a2 2 0 0 1 .515-.888L20.347 4.58Zm5.656 5.657-4.242-4.242-2.122 2.121 4.243 4.243 2.121-2.122Zm-3.535 3.536L18.226 9.53 8.016 19.74l-1.591 5.834 5.833-1.59 10.21-10.211Z" fill="currentColor"/>
</svg>
